bernoullicharts/pow_x_4_5__bits.svg

<?xml version="1.0" encoding="utf-8" standalone="no"?>
<!DOCTYPE svg PUBLIC "-//W3C//DTD SVG 1.1//EN"
  "http://www.w3.org/Graphics/SVG/1.1/DTD/svg11.dtd">
<!-- Created with matplotlib (https://matplotlib.org/) -->
<svg height="345.6pt" version="1.1" viewBox="0 0 460.8 345.6" width="460.8pt" xmlns="http://www.w3.org/2000/svg" xmlns:xlink="http://www.w3.org/1999/xlink">
 <defs>
  <style type="text/css">
*{stroke-linecap:butt;stroke-linejoin:round;}
  </style>
 </defs>
 <g id="figure_1">
  <g id="patch_1">
   <path d="M 0 345.6 
L 460.8 345.6 
L 460.8 0 
L 0 0 
z
" style="fill:#ffffff;"/>
  </g>
  <g id="axes_1">
   <g id="patch_2">
    <path d="M 57.6 307.584 
L 414.72 307.584 
L 414.72 41.472 
L 57.6 41.472 
z
" style="fill:#ffffff;"/>
   </g>
   <g id="matplotlib.axis_1">
    <g id="xtick_1">
     <g id="line2d_1">
      <defs>
       <path d="M 0 0 
L 0 3.5 
" id="mfdfbee0b44" style="stroke:#000000;stroke-width:0.8;"/>
      </defs>
      <g>
       <use style="stroke:#000000;stroke-width:0.8;" x="73.800255" xlink:href="#mfdfbee0b44" y="307.584"/>
      </g>
     </g>
     <g id="text_1">
      <text style="font-family:DejaVu Sans;font-size:10px;font-style:normal;font-weight:normal;text-anchor:middle;" transform="rotate(-0, 73.800255, 322.182437)" x="73.800255" y="322.182437">0.0</text>
     </g>
    </g>
    <g id="xtick_2">
     <g id="line2d_2">
      <g>
       <use style="stroke:#000000;stroke-width:0.8;" x="138.744153" xlink:href="#mfdfbee0b44" y="307.584"/>
      </g>
     </g>
     <g id="text_2">
      <text style="font-family:DejaVu Sans;font-size:10px;font-style:normal;font-weight:normal;text-anchor:middle;" transform="rotate(-0, 138.744153, 322.182437)" x="138.744153" y="322.182437">0.2</text>
     </g>
    </g>
    <g id="xtick_3">
     <g id="line2d_3">
      <g>
       <use style="stroke:#000000;stroke-width:0.8;" x="203.688051" xlink:href="#mfdfbee0b44" y="307.584"/>
      </g>
     </g>
     <g id="text_3">
      <text style="font-family:DejaVu Sans;font-size:10px;font-style:normal;font-weight:normal;text-anchor:middle;" transform="rotate(-0, 203.688051, 322.182437)" x="203.688051" y="322.182437">0.4</text>
     </g>
    </g>
    <g id="xtick_4">
     <g id="line2d_4">
      <g>
       <use style="stroke:#000000;stroke-width:0.8;" x="268.631949" xlink:href="#mfdfbee0b44" y="307.584"/>
      </g>
     </g>
     <g id="text_4">
      <text style="font-family:DejaVu Sans;font-size:10px;font-style:normal;font-weight:normal;text-anchor:middle;" transform="rotate(-0, 268.631949, 322.182437)" x="268.631949" y="322.182437">0.6</text>
     </g>
    </g>
    <g id="xtick_5">
     <g id="line2d_5">
      <g>
       <use style="stroke:#000000;stroke-width:0.8;" x="333.575847" xlink:href="#mfdfbee0b44" y="307.584"/>
      </g>
     </g>
     <g id="text_5">
      <text style="font-family:DejaVu Sans;font-size:10px;font-style:normal;font-weight:normal;text-anchor:middle;" transform="rotate(-0, 333.575847, 322.182437)" x="333.575847" y="322.182437">0.8</text>
     </g>
    </g>
    <g id="xtick_6">
     <g id="line2d_6">
      <g>
       <use style="stroke:#000000;stroke-width:0.8;" x="398.519745" xlink:href="#mfdfbee0b44" y="307.584"/>
      </g>
     </g>
     <g id="text_6">
      <text style="font-family:DejaVu Sans;font-size:10px;font-style:normal;font-weight:normal;text-anchor:middle;" transform="rotate(-0, 398.519745, 322.182437)" x="398.519745" y="322.182437">1.0</text>
     </g>
    </g>
    <g id="text_7">
     <text style="font-family:DejaVu Sans;font-size:10px;font-style:normal;font-weight:normal;text-anchor:middle;" transform="rotate(-0, 236.16, 335.860562)" x="236.16" y="335.860562">Probability</text>
    </g>
   </g>
   <g id="matplotlib.axis_2">
    <g id="ytick_1">
     <g id="line2d_7">
      <defs>
       <path d="M 0 0 
L -3.5 0 
" id="mafb9ee3d82" style="stroke:#000000;stroke-width:0.8;"/>
      </defs>
      <g>
       <use style="stroke:#000000;stroke-width:0.8;" x="57.6" xlink:href="#mafb9ee3d82" y="294.721096"/>
      </g>
     </g>
     <g id="text_8">
      <text style="font-family:DejaVu Sans;font-size:10px;font-style:normal;font-weight:normal;text-anchor:end;" transform="rotate(-0, 50.6, 298.520314)" x="50.6" y="298.520314">2</text>
     </g>
    </g>
    <g id="ytick_2">
     <g id="line2d_8">
      <g>
       <use style="stroke:#000000;stroke-width:0.8;" x="57.6" xlink:href="#mafb9ee3d82" y="256.375874"/>
      </g>
     </g>
     <g id="text_9">
      <text style="font-family:DejaVu Sans;font-size:10px;font-style:normal;font-weight:normal;text-anchor:end;" transform="rotate(-0, 50.6, 260.175093)" x="50.6" y="260.175093">4</text>
     </g>
    </g>
    <g id="ytick_3">
     <g id="line2d_9">
      <g>
       <use style="stroke:#000000;stroke-width:0.8;" x="57.6" xlink:href="#mafb9ee3d82" y="218.030653"/>
      </g>
     </g>
     <g id="text_10">
      <text style="font-family:DejaVu Sans;font-size:10px;font-style:normal;font-weight:normal;text-anchor:end;" transform="rotate(-0, 50.6, 221.829872)" x="50.6" y="221.829872">6</text>
     </g>
    </g>
    <g id="ytick_4">
     <g id="line2d_10">
      <g>
       <use style="stroke:#000000;stroke-width:0.8;" x="57.6" xlink:href="#mafb9ee3d82" y="179.685432"/>
      </g>
     </g>
     <g id="text_11">
      <text style="font-family:DejaVu Sans;font-size:10px;font-style:normal;font-weight:normal;text-anchor:end;" transform="rotate(-0, 50.6, 183.484651)" x="50.6" y="183.484651">8</text>
     </g>
    </g>
    <g id="ytick_5">
     <g id="line2d_11">
      <g>
       <use style="stroke:#000000;stroke-width:0.8;" x="57.6" xlink:href="#mafb9ee3d82" y="141.340211"/>
      </g>
     </g>
     <g id="text_12">
      <text style="font-family:DejaVu Sans;font-size:10px;font-style:normal;font-weight:normal;text-anchor:end;" transform="rotate(-0, 50.6, 145.13943)" x="50.6" y="145.13943">10</text>
     </g>
    </g>
    <g id="ytick_6">
     <g id="line2d_12">
      <g>
       <use style="stroke:#000000;stroke-width:0.8;" x="57.6" xlink:href="#mafb9ee3d82" y="102.99499"/>
      </g>
     </g>
     <g id="text_13">
      <text style="font-family:DejaVu Sans;font-size:10px;font-style:normal;font-weight:normal;text-anchor:end;" transform="rotate(-0, 50.6, 106.794209)" x="50.6" y="106.794209">12</text>
     </g>
    </g>
    <g id="ytick_7">
     <g id="line2d_13">
      <g>
       <use style="stroke:#000000;stroke-width:0.8;" x="57.6" xlink:href="#mafb9ee3d82" y="64.649769"/>
      </g>
     </g>
     <g id="text_14">
      <text style="font-family:DejaVu Sans;font-size:10px;font-style:normal;font-weight:normal;text-anchor:end;" transform="rotate(-0, 50.6, 68.448988)" x="50.6" y="68.448988">14</text>
     </g>
    </g>
    <g id="text_15">
     <text style="font-family:DejaVu Sans;font-size:10px;font-style:normal;font-weight:normal;text-anchor:middle;" transform="rotate(-90, 31.795312, 174.528)" x="31.795312" y="174.528">Average Bits Consumed Per Call</text>
    </g>
   </g>
   <g id="line2d_14">
    <path clip-path="url(#pb22bc7a253)" d="M 73.832727 53.568 
L 77.112066 154.99111 
L 80.391405 183.63499 
L 83.670744 188.581524 
L 86.950083 174.585518 
L 90.229421 197.285889 
L 93.50876 204.264719 
L 96.788099 205.530111 
L 100.067438 225.354591 
L 103.346777 213.122465 
L 106.626116 211.205204 
L 109.905455 214.119441 
L 113.184793 226.811709 
L 116.464132 230.301124 
L 119.743471 227.731994 
L 123.02281 214.963036 
L 126.302149 214.617929 
L 129.581488 227.003435 
L 132.860826 237.433335 
L 136.140165 239.503977 
L 139.419504 227.84703 
L 142.698843 236.474705 
L 145.978182 234.020611 
L 149.257521 245.485832 
L 152.53686 239.580668 
L 155.816198 250.240639 
L 159.095537 243.530225 
L 162.374876 247.863235 
L 165.654215 250.163949 
L 168.933554 249.013592 
L 172.212893 248.515104 
L 175.492231 254.266887 
L 178.77157 250.202294 
L 182.050909 254.496959 
L 185.330248 254.420268 
L 188.609587 259.290111 
L 191.888926 260.01867 
L 195.168264 255.570625 
L 198.447603 254.688685 
L 201.726942 263.46974 
L 205.006281 261.245718 
L 208.28562 261.514134 
L 211.564959 263.968228 
L 214.844298 264.083264 
L 218.123636 261.015646 
L 221.402975 266.729084 
L 224.682314 260.785575 
L 227.961653 265.003549 
L 231.240992 264.466716 
L 234.520331 267.304262 
L 237.799669 264.926859 
L 241.079008 267.649369 
L 244.358347 272.13576 
L 247.637686 270.793678 
L 250.917025 266.422322 
L 254.196364 271.138785 
L 257.475702 272.097415 
L 260.755041 272.787629 
L 264.03438 273.056046 
L 267.313719 272.557558 
L 270.593058 270.793678 
L 273.872397 275.011652 
L 277.151736 274.513164 
L 280.431074 273.899641 
L 283.710413 281.031852 
L 286.989752 282.335589 
L 290.269091 276.39208 
L 293.54843 279.114591 
L 296.827769 278.117615 
L 300.107107 278.616103 
L 303.386446 279.804805 
L 306.665785 281.261923 
L 309.945124 280.264947 
L 313.224463 281.875447 
L 316.503802 284.712993 
L 319.78314 282.987458 
L 323.062479 282.949113 
L 326.341818 283.562636 
L 329.621157 283.869398 
L 332.900496 284.866374 
L 336.179835 284.712993 
L 339.459174 285.096445 
L 342.738512 287.972337 
L 346.017851 286.975361 
L 349.29719 289.199384 
L 352.576529 289.007658 
L 355.855868 290.579812 
L 359.135207 291.998585 
L 362.414545 288.969312 
L 365.693884 288.815932 
L 368.973223 288.010682 
L 372.252562 292.573763 
L 375.531901 291.768514 
L 378.81124 293.263977 
L 382.090579 291.538442 
L 385.369917 293.609084 
L 388.649256 290.042979 
L 391.928595 293.225632 
L 395.207934 293.915846 
L 398.487273 295.488 
" style="fill:none;stroke:#1f77b4;stroke-linecap:square;stroke-width:1.5;"/>
   </g>
   <g id="patch_3">
    <path d="M 57.6 307.584 
L 57.6 41.472 
" style="fill:none;stroke:#000000;stroke-linecap:square;stroke-linejoin:miter;stroke-width:0.8;"/>
   </g>
   <g id="patch_4">
    <path d="M 414.72 307.584 
L 414.72 41.472 
" style="fill:none;stroke:#000000;stroke-linecap:square;stroke-linejoin:miter;stroke-width:0.8;"/>
   </g>
   <g id="patch_5">
    <path d="M 57.6 307.584 
L 414.72 307.584 
" style="fill:none;stroke:#000000;stroke-linecap:square;stroke-linejoin:miter;stroke-width:0.8;"/>
   </g>
   <g id="patch_6">
    <path d="M 57.6 41.472 
L 414.72 41.472 
" style="fill:none;stroke:#000000;stroke-linecap:square;stroke-linejoin:miter;stroke-width:0.8;"/>
   </g>
   <g id="text_16">
    <text style="font-family:DejaVu Sans;font-size:12px;font-style:normal;font-weight:normal;text-anchor:middle;" transform="rotate(-0, 236.16, 35.472)" x="236.16" y="35.472">Avg. Bits Consumed by pow(x,4/5) Algorithm</text>
   </g>
   <g id="legend_1">
    <g id="patch_7">
     <path d="M 322.080938 64.150125 
L 407.72 64.150125 
Q 409.72 64.150125 409.72 62.150125 
L 409.72 48.472 
Q 409.72 46.472 407.72 46.472 
L 322.080938 46.472 
Q 320.080938 46.472 320.080938 48.472 
L 320.080938 62.150125 
Q 320.080938 64.150125 322.080938 64.150125 
z
" style="fill:#ffffff;opacity:0.8;stroke:#cccccc;stroke-linejoin:miter;"/>
    </g>
    <g id="line2d_15">
     <path d="M 324.080938 54.570438 
L 344.080938 54.570438 
" style="fill:none;stroke:#1f77b4;stroke-linecap:square;stroke-width:1.5;"/>
    </g>
    <g id="line2d_16"/>
    <g id="text_17">
     <text style="font-family:DejaVu Sans;font-size:10px;font-style:normal;font-weight:normal;text-anchor:start;" transform="rotate(-0, 352.080938, 58.070438)" x="352.080938" y="58.070438">pow(x,4/5)</text>
    </g>
   </g>
  </g>
 </g>
 <defs>
  <clipPath id="pb22bc7a253">
   <rect height="266.112" width="357.12" x="57.6" y="41.472"/>
  </clipPath>
 </defs>
</svg>

<svg height="460.8" viewBox="0 0 460.8 345.6" width="614.4" xmlns="http://www.w3.org/2000/svg" xmlns:xlink="http://www.w3.org/1999/xlink"><defs><style>*{stroke-linecap:butt;stroke-linejoin:round}</style></defs><g id="figure_1"><path d="M0 345.6h460.8V0H0z" fill="#fff" id="patch_1"/><g id="axes_1"><path d="M57.6 307.584h357.12V41.472H57.6z" fill="#fff" id="patch_2"/><g id="matplotlib.axis_1"><g id="xtick_1"><g id="line2d_1"><defs><path d="M0 0v3.5" id="mfdfbee0b44" stroke="#000" stroke-width=".8"/></defs><use x="73.8" xlink:href="#mfdfbee0b44" y="307.584" stroke="#000" stroke-width=".8"/></g><text x="73.8" y="322.182" font-family="DejaVu Sans" font-size="10" font-weight="400" text-anchor="middle" id="text_1">0.0</text></g><g id="xtick_2"><use x="138.744" xlink:href="#mfdfbee0b44" y="307.584" stroke="#000" stroke-width=".8" id="line2d_2"/><text x="138.744" y="322.182" font-family="DejaVu Sans" font-size="10" font-weight="400" text-anchor="middle" id="text_2">0.2</text></g><g id="xtick_3"><use x="203.688" xlink:href="#mfdfbee0b44" y="307.584" stroke="#000" stroke-width=".8" id="line2d_3"/><text x="203.688" y="322.182" font-family="DejaVu Sans" font-size="10" font-weight="400" text-anchor="middle" id="text_3">0.4</text></g><g id="xtick_4"><use x="268.632" xlink:href="#mfdfbee0b44" y="307.584" stroke="#000" stroke-width=".8" id="line2d_4"/><text x="268.632" y="322.182" font-family="DejaVu Sans" font-size="10" font-weight="400" text-anchor="middle" id="text_4">0.6</text></g><g id="xtick_5"><use x="333.576" xlink:href="#mfdfbee0b44" y="307.584" stroke="#000" stroke-width=".8" id="line2d_5"/><text x="333.576" y="322.182" font-family="DejaVu Sans" font-size="10" font-weight="400" text-anchor="middle" id="text_5">0.8</text></g><g id="xtick_6"><use x="398.52" xlink:href="#mfdfbee0b44" y="307.584" stroke="#000" stroke-width=".8" id="line2d_6"/><text x="398.52" y="322.182" font-family="DejaVu Sans" font-size="10" font-weight="400" text-anchor="middle" id="text_6">1.0</text></g><text x="236.16" y="335.861" font-family="DejaVu Sans" font-size="10" font-weight="400" text-anchor="middle" id="text_7">Probability</text></g><g id="matplotlib.axis_2"><g id="ytick_1"><g id="line2d_7"><defs><path d="M0 0h-3.5" id="mafb9ee3d82" stroke="#000" stroke-width=".8"/></defs><use x="57.6" xlink:href="#mafb9ee3d82" y="294.721" stroke="#000" stroke-width=".8"/></g><text x="50.6" y="298.52" font-family="DejaVu Sans" font-size="10" font-weight="400" text-anchor="end" id="text_8">2</text></g><g id="ytick_2"><use x="57.6" xlink:href="#mafb9ee3d82" y="256.376" stroke="#000" stroke-width=".8" id="line2d_8"/><text x="50.6" y="260.175" font-family="DejaVu Sans" font-size="10" font-weight="400" text-anchor="end" id="text_9">4</text></g><g id="ytick_3"><use x="57.6" xlink:href="#mafb9ee3d82" y="218.031" stroke="#000" stroke-width=".8" id="line2d_9"/><text x="50.6" y="221.83" font-family="DejaVu Sans" font-size="10" font-weight="400" text-anchor="end" id="text_10">6</text></g><g id="ytick_4"><use x="57.6" xlink:href="#mafb9ee3d82" y="179.685" stroke="#000" stroke-width=".8" id="line2d_10"/><text x="50.6" y="183.485" font-family="DejaVu Sans" font-size="10" font-weight="400" text-anchor="end" id="text_11">8</text></g><g id="ytick_5"><use x="57.6" xlink:href="#mafb9ee3d82" y="141.34" stroke="#000" stroke-width=".8" id="line2d_11"/><text x="50.6" y="145.139" font-family="DejaVu Sans" font-size="10" font-weight="400" text-anchor="end" id="text_12">10</text></g><g id="ytick_6"><use x="57.6" xlink:href="#mafb9ee3d82" y="102.995" stroke="#000" stroke-width=".8" id="line2d_12"/><text x="50.6" y="106.794" font-family="DejaVu Sans" font-size="10" font-weight="400" text-anchor="end" id="text_13">12</text></g><g id="ytick_7"><use x="57.6" xlink:href="#mafb9ee3d82" y="64.65" stroke="#000" stroke-width=".8" id="line2d_13"/><text x="50.6" y="68.449" font-family="DejaVu Sans" font-size="10" font-weight="400" text-anchor="end" id="text_14">14</text></g><text transform="rotate(-90 31.795 174.528)" x="31.795" y="174.528" font-family="DejaVu Sans" font-size="10" font-weight="400" text-anchor="middle" id="text_15">Average Bits Consumed Per Call</text></g><path clip-path="url(#pb22bc7a253)" d="M73.833 53.568l3.28 101.423 3.278 28.644 3.28 4.947 3.28-13.996 3.278 22.7 3.28 6.979 3.28 1.265 3.278 19.825 3.28-12.233 3.28-1.917 3.278 2.914 3.28 12.693 3.28 3.49 3.278-2.57 3.28-12.769 3.28-.345 3.278 12.385 3.28 10.43 3.28 2.071 3.279-11.657 3.279 8.628 3.28-2.454 3.279 11.465 3.279-5.905 3.28 10.66 3.279-6.71 3.279 4.332 3.28 2.3 3.279-1.15 3.279-.498 3.28 5.752 3.279-4.065 3.279 4.295 3.28-.077 3.279 4.87 3.279.729 3.28-4.448 3.279-.882 3.279 8.78 3.28-2.223 3.279.268 3.279 2.454 3.28.115 3.279-3.067 3.279 5.713 3.28-5.943 3.279 4.218 3.279-.537 3.28 2.837 3.279-2.377 3.279 2.722 3.28 4.487 3.279-1.342 3.279-4.372 3.28 4.717 3.279.958 3.279.69 3.28.269 3.279-.498 3.28-1.764 3.278 4.218 3.28-.499 3.28-.613 3.278 7.132 3.28 1.304 3.28-5.944 3.278 2.723 3.28-.997 3.28.498 3.278 1.189 3.28 1.457 3.28-.997 3.278 1.61 3.28 2.838 3.28-1.726 3.278-.038 3.28.614 3.28.306 3.278.997 3.28-.153 3.28.383 3.279 2.876 3.279-.997 3.28 2.224 3.279-.191 3.279 1.572 3.28 1.419 3.279-3.03 3.279-.153 3.28-.805 3.279 4.563 3.279-.805 3.28 1.495 3.279-1.726 3.279 2.071 3.28-3.566 3.279 3.183 3.279.69 3.28 1.572" fill="none" stroke="#1f77b4" stroke-linecap="square" stroke-width="1.5" id="line2d_14"/><path d="M57.6 307.584V41.472" fill="none" stroke="#000" stroke-linecap="square" stroke-width=".8" id="patch_3"/><path d="M414.72 307.584V41.472" fill="none" stroke="#000" stroke-linecap="square" stroke-width=".8" id="patch_4"/><path d="M57.6 307.584h357.12" fill="none" stroke="#000" stroke-linecap="square" stroke-width=".8" id="patch_5"/><path d="M57.6 41.472h357.12" fill="none" stroke="#000" stroke-linecap="square" stroke-width=".8" id="patch_6"/><text x="236.16" y="35.472" font-family="DejaVu Sans" font-size="12" font-weight="400" text-anchor="middle" id="text_16">Avg. Bits Consumed by pow(x,4/5) Algorithm</text><g id="legend_1"><path d="M322.08 64.15h85.64q2 0 2-2V48.472q0-2-2-2h-85.64q-2 0-2 2V62.15q0 2 2 2z" fill="#fff" opacity=".8" stroke="#ccc" id="patch_7"/><path d="M324.08 54.57h20" fill="none" stroke="#1f77b4" stroke-linecap="square" stroke-width="1.5" id="line2d_15"/><text x="352.081" y="58.07" font-family="DejaVu Sans" font-size="10" font-weight="400" id="text_17">pow(x,4/5)</text></g></g></g><defs><clipPath id="pb22bc7a253"><path d="M57.6 41.472h357.12v266.112H57.6z"/></clipPath></defs></svg>
